X: 380
T: Dongda feiyengdui
L: 1/16
M: 2/4
K: Bb
d'2 d'2 c'2 d' c' [I:setbarnb 1]| 
b g2 fd4 | 
d'2 d'2 c'2 d' c' | 
b8 | 
b2 b c' d'2 d' d' | 
f2 b2 c'3 b | 
g2 g f2< d2 f | 
g2 f g b2 a g | 
f8 |]

@@@ Tune index: 9254
